outputs/icons/image/camera_round.svg

<svg xmlns="http://www.w3.org/2000/svg" width="1200" height="1200" fill="none"><g fill="#000" clip-path="url(#a)"><path d="M750 600c0 82.845-67.155 150-150 150s-150-67.155-150-150 67.155-150 150-150 150 67.155 150 150"/><path fill-rule="evenodd" d="M841.5 200H1000c55 0 100 45 100 100v600c0 55-45 100-100 100H200c-55 0-100-45-100-100V300c0-55 45-100 100-100h158.5l61.5-67.5c19-20.5 46-32.5 74-32.5h212c28 0 55 12 73.5 32.5zM350 600c0 138 112 250 250 250s250-112 250-250-112-250-250-250-250 112-250 250"/></g><defs><clipPath id="a"><path fill="#fff" d="M0 0h1200v1200H0z"/></clipPath></defs></svg>

<svg width="1200" height="1200" viewBox="0 0 1200 1200" fill="none" xmlns="http://www.w3.org/2000/svg"><g clip-path="url(#clip0_238_2752)"><path d="M750 600C750 682.845 682.845 750 600 750C517.155 750 450 682.845 450 600C450 517.155 517.155 450 600 450C682.845 450 750 517.155 750 600Z" fill="black"/><path fill-rule="evenodd" d="M841.5 200H1000C1055 200 1100 245 1100 300V900C1100 955 1055 1000 1000 1000H200C145 1000 100 955 100 900V300C100 245 145 200 200 200H358.5L420 132.5C439 112 466 100 494 100H706C734 100 761 112 779.5 132.5L841.5 200ZM350 600C350 738 462 850 600 850C738 850 850 738 850 600C850 462 738 350 600 350C462 350 350 462 350 600Z" fill="black"/></g><defs><clipPath id="clip0_238_2752"><path width="24" fill="white" d="M0 0H1200V1200H0V0z"/></clipPath></defs></svg>
